X:1
T:Valse en La mineur
T:Valse en La mi.. majeur
T:F. Chopin (presque)
C:F. Chopin
%%score { 1 | 2 }
L:1/8
Q:1/4=132
M:3/4
K:A
V:1 treble nm="Piano" snm="Pno."
V:2 bass 
V:1
"^Allegretto" (E2 | AB c2) c2 | (de f4) | (^Bc^dagf) |{ef} (e^d e4) | (AB c2) c2 | (de f4) | %7
 (^Bc^dagB) | c2 z2 (E2 | AB c2) c2 | (de f4) | (^Bc^dagf) |{ef} (e^d e4) | (cd e2) e2 | (fg a4) | %15
 (g2 ^^fg^d'^f | e6) |: (ef^gabc' |{bc'} baeb a2) |{ab} (agef e2) |{ef} (ecAB A2) | %21
 (3(EGB (5:4:5e/g/b/!8va(!e'/g'/ b'>c'') |{b'c''} (b'a'e'b' a'2) |{a'b'} (a'g'e'e'' e''2 | %24
 a'4)!8va)! z2 :: (AB c2) c2 | (de f4) | (^Bc^dagf) |{ef} (e^d e4) | (cd e2) e2 | (fg a4) | %31
 (^de f2) f2 | (ga b4) | (b=c'd'=f'e'd' | P=c'bc'ga=f) |{e=f} (edG=f e2) |{e=f} (e=cA=f e2) | %37
 (b=c'd'=f'e'd' | P=c'bc'ga=f) |{e=f} (edG=feG | A2) z2 E2 :| (AB c2) c2 | (de f4) | (^Bc^dagf) | %44
{ef} (e^d e4) | (AB c2) c2 | (de f4) | (^Bc^dagB) | c2 z2 E2 | (AB c2) c2 | (de f4) | z (Pe^deb=d | %52
 c4) z2 | z (c'bagf | edcdef | Te2 ^de fG | A4) z2 |] %57
V:2
 z2 | A,,,2 [A,CE]2 [A,CE]2 | D,,2 [A,DF]2 [A,DF]2 | G,,2 [G,^B,F]2 [G,B,F]2 | %4
 C,2 [G,CE]2 [G,CE]2 | A,,2 [A,CE]2 [A,CE]2 | D,,2 [A,DF]2 [A,DF]2 | G,,2 [G,^B,F]2 [G,B,F]2 | %8
 C,2 [G,CE]2 z2 | A,,,2 [A,CE]2 [A,CE]2 | D,,2 [A,DF]2 [A,DF]2 | G,,2 [G,^B,F]2 [G,B,F]2 | %12
 C,2 [G,CE]2 [G,CE]2 | A,,2 [A,CE]2 [A,CE]2 | D,,2 [A,DF]2 [A,DF]2 | G,,2 [G,^B,F]2 [G,B,F]2 | %16
 C,2 [G,CE]2 [G,CE]2 |: E,,2 [E,B,D]2 [E,^G,D]2 | A,,2 [E,A,C]2 [E,A,C]2 | E,,2 [E,B,D]2 [E,B,D]2 | %20
 A,,2 [E,A,C]2 [E,A,C]2 | E,,2 [E,B,D]2 [E,^G,D]2 | A,,2 [E,A,C]2 [E,A,C]2 | %23
 E,,2 [E,B,D]2 [E,B,D]2 | A,,2 [E,A,C]2 [E,A,C]2 :: A,,,2 [A,CE]2 [A,CE]2 | D,,2 [A,DF]2 [A,DF]2 | %27
 G,,2 [G,^B,F]2 [G,B,F]2 | C,2 [G,CE]2 [G,CE]2 | A,,2 [A,CE]2 [A,CE]2 | D,,2 [A,DF]2 [A,DF]2 | %31
 B,,,2 [A,B,^D]2 [A,B,^D]2 | E,,2 [E,B,=D]2 z2 | E,,2 [E,G,D]2 [E,G,D]2 | A,,2 [E,A,=C]2 [E,A,C]2 | %35
 E,,2 [E,B,D]2 [E,B,D]2 | A,,2 [E,A,=C]2 [E,A,C]2 | E,,2 [E,G,D]2 [E,G,D]2 | %38
 A,,2 [E,A,=C]2 [E,A,C]2 | E,,2 [E,B,D]2 [E,B,D]2 | A,,2 [E,=C]2 z2 :| A,,,2 [A,CE]2 [A,CE]2 | %42
 D,,2 [A,DF]2 [A,DF]2 | G,,2 [G,^B,F]2 [G,B,F]2 | C,2 [G,CE]2 [G,CE]2 | A,,2 [A,CE]2 [A,CE]2 | %46
 D,,2 [A,DF]2 [A,DF]2 | G,,2 [G,^B,F]2 [G,B,F]2 | C,2 [G,E]2 z2 | A,,,2 [A,CE]2 [A,CE]2 | %50
 D,,2 [A,DF]2 [A,DF]2 | E,,2 [E,^G,D]2 [E,G,D]2 | A,,2 [E,A,C]2 [E,A,C]2 | C,2 [E,A,E]2 z2 | %54
 D,2 [A,B,F]2 z2 | E,,2 [E,C]2 [E,B,D]2 | A,,2 [E,C]2 z2 |] %57

